assets/svg/tag.svg

<svg width="50px" height="50px" viewBox="0 0 50 50" version="1.1" xmlns="http://www.w3.org/2000/svg" xmlns:xlink="http://www.w3.org/1999/xlink">
    <defs>
        <path d="M18.0766406,14.6448277 C16.5084698,16.2113935 13.9676156,16.2113935 12.4010498,14.6448277 C10.834484,13.0766568 10.834484,10.5374078 12.4010498,8.96923687 C13.9692207,7.40267108 16.5084698,7.40267108 18.0766406,8.96923687 C19.6432064,10.5374078 19.6432064,13.0766568 18.0766406,14.6448277 M20.4216741,5.67936709e-06 C21.2755808,-0.00159940853 22.0941757,0.337074139 22.6976887,0.94058719 L44.9281562,23.1710546 C46.1801247,24.4246283 46.1801247,26.4566696 44.9281562,27.7118483 L31.1436613,41.4963432 C29.8884825,42.7499169 27.8564412,42.7499169 26.6028676,41.4963432 L4.37079506,19.2626656 C3.76888709,18.6607576 3.43021355,17.845373 3.43021355,16.9930713 L4.56661578,4.3626346 C4.56661578,2.59222264 5.99995928,1.15566897 7.77197632,1.15245879 L20.4216741,5.67936709e-06 Z M2.5,45 L47.5,45 C48.8803571,45 50,46.1196429 50,47.4982143 C50,48.8803571 48.8803571,50 47.5,50 L2.5,50 C1.11964286,50 0,48.8803571 0,47.4982143 C0,46.1196429 1.11964286,45 2.5,45 Z" id="path-1"></path>
    </defs>
</svg>

<svg width="50" height="50" xmlns="http://www.w3.org/2000/svg"><defs><path d="M18.077 14.645a4.015 4.015 0 01-5.676 0 4.015 4.015 0 010-5.676 4.015 4.015 0 015.676 0 4.015 4.015 0 010 5.676M20.422 0a3.21 3.21 0 012.276.94l22.23 22.231a3.214 3.214 0 010 4.54L31.144 41.497a3.211 3.211 0 01-4.541 0L4.37 19.263a3.208 3.208 0 01-.94-2.27l1.136-12.63a3.21 3.21 0 013.205-3.21L20.422 0zM2.5 45h45a2.5 2.5 0 010 5h-45a2.5 2.5 0 010-5z" id="path-1"/></defs></svg>
